!!!COA:	Josquin des Prez
!!!CDT:	~1450-1521/08/27
!!!OTL:	Kyrie Pascale
!!!AGN:	Mass section; Kyrie
!!!SCT:	NJE 13.14
!!!SCA:	New Josquin Edition 13.14
!!!voices:	4
**kern	**text	**kern	**text	**kern	**text	**kern	**text
*staff4	*staff4	*staff3	*staff3	*staff2	*staff2	*staff1	*staff1
*Ivox	*	*Ivox	*	*Ivox	*	*Ivox	*
*I"Bassus	*	*I"Tenor	*	*I"Contratenor	*	*I"Superius	*
*I'B	*	*I'T	*	*I'Ct	*	*I'S	*
*>[A,B,C]	*>[A,B,C]	*>[A,B,C]	*>[A,B,C]	*>[A,B,C]	*>[A,B,C]	*>[A,B,C]	*>[A,B,C]
*>A	*>A	*>A	*>A	*>A	*>A	*>A	*>A
*clefF4	*	*clefGv2	*	*clefGv2	*	*clefG2	*
*k[]	*	*k[]	*	*k[]	*	*k[]	*
*M2/1	*	*M2/1	*	*M2/1	*	*M2/1	*
*met(C|)	*	*met(C|)	*	*met(C|)	*	*met(C|)	*
!!section: Kyrie I
!!!OMD: Kyrie I
=1-	=1-	=1-	=1-	=1-	=1-	=1-	=1-
0r	.	0r	.	0r	.	1g	Ky-
.	.	.	.	.	.	1a	.
=2	=2	=2	=2	=2	=2	=2	=2
0r	.	0r	.	1c	Ky-	1cc	.
.	.	.	.	1d	.	1a	-ri-
=3	=3	=3	=3	=3	=3	=3	=3
0r	.	0r	.	1f	.	1a	-e-
.	.	.	.	[1d	-ri-	2r	.
.	.	.	.	.	.	2a/	.
=4	=4	=4	=4	=4	=4	=4	=4
0r	.	[0G	Ky-	2d\]	.	2.b\	.
.	.	.	.	2e\	.	.	.
.	.	.	.	.	.	4cc\	.
.	.	.	.	2d\	-e-	4dd\	.
.	.	.	.	.	.	4ee\	.
.	.	.	.	[2g\	.	[2dd\	.
=5	=5	=5	=5	=5	=5	=5	=5
0r	.	0G]	.	2g\]	.	4dd\]	.
.	.	.	.	.	.	4cc\	.
.	.	.	.	4f\	.	1cc	.
.	.	.	.	4e\	.	.	.
.	.	.	.	1d	.	.	.
.	.	.	.	.	.	2b\	.
=6	=6	=6	=6	=6	=6	=6	=6
0r	.	0A	.	2c\	.	[0cc	.
.	.	.	.	1f	.	.	.
.	.	.	.	4e\	.	.	.
.	.	.	.	4d\	.	.	.
=7	=7	=7	=7	=7	=7	=7	=7
0C	Ky-	1.c	.	0e	.	0cc]	.
.	.	2B\	-ri-	.	.	.	.
=8	=8	=8	=8	=8	=8	=8	=8
1D	.	1A	-e-	2f\	.	0r	.
.	.	.	.	4e\	.	.	.
.	.	.	.	4d\	.	.	.
1F	.	2r	.	1c	.	.	.
.	.	2A/	.	.	.	.	.
=9	=9	=9	=9	=9	=9	=9	=9
2D\	-ri-	2.B\	.	2d\	.	0r	.
2E\	.	.	.	2G/	.	.	.
.	.	4c\	.	.	.	.	.
2D\	-e-	4d\	.	2A/	.	.	.
.	.	4e\	.	.	.	.	.
2G\	.	[2d\	.	2B\	.	.	.
=10	=10	=10	=10	=10	=10	=10	=10
2E\	.	4d\]	.	2G/	.	0r	.
.	.	4c\	.	.	.	.	.
2F\	.	1c	.	2A/	.	.	.
1D	.	.	.	1F	.	.	.
.	.	2B\	.	.	.	.	.
=11	=11	=11	=11	=11	=11	=11	=11
1C	.	1c	.	2G/	.	0cc	.
.	.	.	.	2.A/	.	.	.
1r	.	1r	.	.	.	.	.
.	.	.	.	4B\	.	.	.
.	.	.	.	4c\	.	.	.
.	.	.	.	4d\	.	.	.
=12	=12	=12	=12	=12	=12	=12	=12
1C	.	[0c	.	1e	.	1g	.
1F	.	.	.	1f	.	1a	.
=13	=13	=13	=13	=13	=13	=13	=13
2.C/	.	0c_	.	0e	.	1.g	.
4D\	.	.	.	.	.	.	.
2E\	.	.	.	.	.	.	.
2C/	.	.	.	.	.	2g/	.
=14	=14	=14	=14	=14	=14	=14	=14
1F	.	0c_	.	1f	.	2a/	.
.	.	.	.	.	.	4g/	.
.	.	.	.	.	.	4f/	.
2.C/	.	.	.	2.e\	.	[1g	.
4D\	.	.	.	4f\	.	.	.
=15	=15	=15	=15	=15	=15	=15	=15
2E\	.	0c]	.	0e	.	1g]	.
2C/	.	.	.	.	.	.	.
1C	.	.	.	.	.	1r	.
=16	=16	=16	=16	=16	=16	=16	=16
2r	.	[0G	.	2r	.	2.g/	.
2.E\	.	.	.	2.g\	.	.	.
.	.	.	.	.	.	4a/	.
.	.	.	.	.	.	4b\	.
4D\	.	.	.	4f\	.	4cc\	.
2BB/	.	.	.	2d\	.	[2dd\	.
=17	=17	=17	=17	=17	=17	=17	=17
1C	.	0G]	.	2g\	.	4dd\]	.
.	.	.	.	.	.	4cc\	.
.	.	.	.	4f\	.	1cc	.
.	.	.	.	4e\	.	.	.
1G	.	.	.	1d	.	.	.
.	.	.	.	.	.	2b\	.
=18	=18	=18	=18	=18	=18	=18	=18
2r	.	[0A	.	1c	.	2.cc\	.
2F\	.	.	.	.	.	.	.
.	.	.	.	.	.	4b\	.
2.F\	.	.	.	2r	.	4cc\	.
.	.	.	.	.	.	4b\	.
.	.	.	.	[2d\	.	4a/	.
4E\	.	.	.	.	.	4g/	.
=19	=19	=19	=19	=19	=19	=19	=19
2D\	.	0A]	.	2d\]	.	2f/	.
2C/	.	.	.	2e\	.	1g	.
1D	.	.	.	1d	.	.	.
.	.	.	.	.	.	2f#i/	.
=20	=20	=20	=20	=20	=20	=20	=20
2E\	.	[0G	.	2.B\	.	1g	.
4D\	.	.	.	.	.	.	.
4C/	.	.	.	4c\	.	.	.
2BB/	.	.	.	2d\	.	2r	.
2C/	.	.	.	2e\	.	[2g/	.
=21	=21	=21	=21	=21	=21	=21	=21
2BB/	.	0G]	.	2d\	.	4g/]	.
.	.	.	.	.	.	4f/	.
2C/	.	.	.	1c	.	2e/	.
1G	.	.	.	.	.	1d	.
.	.	.	.	2B\	.	.	.
=22	=22	=22	=22	=22	=22	=22	=22
1.C	.	[0E	.	2c\	.	2c/	.
.	.	.	.	1e	.	1cc	.
2D\	.	.	.	4d\	.	4b\	.
.	.	.	.	4c\	.	4a/	.
=23	=23	=23	=23	=23	=23	=23	=23
2E\	.	0E]	.	2B\	.	2g/	.
2C/	.	.	.	2c\	.	1a	.
1E	.	.	.	1B	.	.	.
.	.	.	.	.	.	2g#i/	.
=24	=24	=24	=24	=24	=24	=24	=24
1r	.	[0F	.	1.A	.	1a	.
1D	.	.	.	.	.	1r	.
.	.	.	.	[2d\	.	.	.
=25	=25	=25	=25	=25	=25	=25	=25
[0D	.	0F_	.	2d\]	.	[0a	.
.	.	.	.	4c\	.	.	.
.	.	.	.	4B\	.	.	.
.	.	.	.	1A	.	.	.
=26	=26	=26	=26	=26	=26	=26	=26
0D]	.	0F]	.	0d	.	1.a]	.
.	.	.	.	.	.	4g/	.
.	.	.	.	.	.	4f/	.
=27	=27	=27	=27	=27	=27	=27	=27
[0C	.	[0G	-ley-	2r	.	4e/	.
.	.	.	.	.	.	4d/	.
.	.	.	.	2.c\	.	4e/	.
.	.	.	.	.	.	4f/	.
.	.	.	.	.	.	[1g	.
.	.	.	.	4d\	.	.	.
.	.	.	.	4e\	.	.	.
.	.	.	.	4f\	.	.	.
=28	=28	=28	=28	=28	=28	=28	=28
0C_	.	0G_	.	2g\	.	2g/]	.
.	.	.	.	2.c\	.	2e/	.
.	.	.	.	.	.	[1g	.
.	.	.	.	4d\	.	.	.
.	.	.	.	4e\	.	.	.
.	.	.	.	4f\	.	.	.
=29	=29	=29	=29	=29	=29	=29	=29
0C]	.	0G_	.	2g\	.	2g/]	.
.	.	.	.	2.c\	.	2.e/	.
.	.	.	.	4d\	.	4f/	.
.	.	.	.	4e\	.	4g/	.
.	.	.	.	4f\	.	4a/	.
=30	=30	=30	=30	=30	=30	=30	=30
2r	.	0G_	.	2g\	.	2b\	.
1C	.	.	.	2e\	.	2.g/	.
.	.	.	.	1e	.	.	.
.	.	.	.	.	.	4a/	.
4BB/	.	.	.	.	.	4b\	.
4AA/	.	.	.	.	.	4cc\	.
=31	=31	=31	=31	=31	=31	=31	=31
2BB/	.	0G_	.	2r	.	2dd\	.
2.C/	.	.	.	1g	.	1ee	.
4D\	.	.	.	.	.	.	.
4E\	.	.	.	4f\	.	4dd\	.
4F\	.	.	.	4e\	.	4cc\	.
=32	=32	=32	=32	=32	=32	=32	=32
2G\	.	0G]	.	2d\	.	2b\	.
2C/	.	.	.	2e\	.	1cc	.
1G	.	.	.	1d	.	.	.
.	.	.	.	.	.	2b\	.
=33	=33	=33	=33	=33	=33	=33	=33
2C/	.	0E	.	2c\	.	0cc	.
1c	.	.	.	1e	.	.	.
4B\	.	.	.	4d\	.	.	.
4A\	.	.	.	4c\	.	.	.
=34	=34	=34	=34	=34	=34	=34	=34
2G\	.	0r	.	2B\	.	2r	.
1A	.	.	.	2c\	.	1cc	.
.	.	.	.	1A	.	.	.
4G\	.	.	.	.	.	4b\	.
4F\	.	.	.	.	.	4a/	.
=35	=35	=35	=35	=35	=35	=35	=35
2E\	.	1r	.	1c	.	2g/	.
1F	.	.	.	.	.	1a	.
.	.	1c	.	2A/	.	.	.
4E\	.	.	.	2B\	.	4g/	.
4D\	.	.	.	.	.	4f/	.
=36	=36	=36	=36	=36	=36	=36	=36
2.C/	.	2G/	.	1.c	.	4e/	.
.	.	.	.	.	.	4d/	.
.	.	2A/	.	.	.	4e/	.
4D\	.	.	.	.	.	4f/	.
2E\	.	2G/	.	.	.	2g/	.
2F\	.	2A/	.	4B\	.	[2f/	.
.	.	.	.	4A/	.	.	.
=37	=37	=37	=37	=37	=37	=37	=37
2D\	.	2F/	.	2B\	.	4f/]	.
.	.	.	.	.	.	4e/	.
2C/	.	2E/	.	1A	.	1e	.
1D	.	1F	.	.	.	.	.
.	.	.	.	4G/	.	2d/	.
.	.	.	.	4F/	.	.	.
=38	=38	=38	=38	=38	=38	=38	=38
[0C;	.	2E/	.	0G	.	[0e;	.
.	.	1c	.	.	.	.	.
.	.	4B\	.	.	.	.	.
.	.	4A/	.	.	.	.	.
=39	=39	=39	=39	=39	=39	=39	=39
0C]	.	0G;	.	0c;	.	0e]	.
=40	=40	=40	=40	=40	=40	=40	=40
2AA/	.	2A/	.	1c	.	2e/	.
2C/	.	2G/	.	.	.	1e	-ley-
1D	-ley-	1F	.	2A/	-ley-	.	.
.	.	.	.	2B\	.	2d/	.
=41	=41	=41	=41	=41	=41	=41	=41
0r	.	[0El	-son	[0Bl	-son	[0el	-son
=42	=42	=42	=42	=42	=42	=42	=42
0El	-son	0E]	.	0B]	.	0e]	.
!!LO:LB:i:g=z
=43||	=43||	=43||	=43||	=43||	=43||	=43||	=43||
*>B	*>B	*>B	*>B	*>B	*>B	*>B	*>B
*clefF4	*	*clefGv2	*	*clefGv2	*	*clefG2	*
*k[]	*	*k[]	*	*k[]	*	*k[]	*
*M2/1	*	*M2/1	*	*M2/1	*	*M2/1	*
*met(C|)	*	*met(C|)	*	*met(C|)	*	*met(C|)	*
!!section: Christe
!!!OMD: Christe
0F	Chri-	0r	.	0r	.	0r	.
=44	=44	=44	=44	=44	=44	=44	=44
1G	.	0r	.	0r	.	0r	.
[1F	-ste-	.	.	.	.	.	.
=45	=45	=45	=45	=45	=45	=45	=45
2F\]	.	0c	Chri-	0r	.	0r	.
4E\	.	.	.	.	.	.	.
4D\	.	.	.	.	.	.	.
1E	.	.	.	.	.	.	.
=46	=46	=46	=46	=46	=46	=46	=46
2.D\	.	1d	.	0r	.	0r	.
4E\	.	.	.	.	.	.	.
4F\	.	[1c	-ste-	.	.	.	.
4G\	.	.	.	.	.	.	.
[2A\	.	.	.	.	.	.	.
=47	=47	=47	=47	=47	=47	=47	=47
2A\]	.	2c\]	.	0r	.	0r	.
4G\	.	4B\	.	.	.	.	.
4F\	.	4A/	.	.	.	.	.
1G	.	1B	.	.	.	.	.
=48	=48	=48	=48	=48	=48	=48	=48
2.F\	.	2.A/	.	0r	.	0r	.
4G\	.	4B\	.	.	.	.	.
4A\	.	4c\	.	.	.	.	.
4B\	.	4d\	.	.	.	.	.
[2c\	.	[2e\	.	.	.	.	.
=49	=49	=49	=49	=49	=49	=49	=49
2c\]	.	2e\]	.	0r	.	0r	.
4B\	.	4d\	.	.	.	.	.
4A\	.	4c\	.	.	.	.	.
1G	.	2d\	.	.	.	.	.
.	.	2e\	.	.	.	.	.
=50	=50	=50	=50	=50	=50	=50	=50
2F\	.	2d\	.	0r	.	0r	.
2E\	.	1c	.	.	.	.	.
1D	.	.	.	.	.	.	.
.	.	2B\	.	.	.	.	.
=51	=51	=51	=51	=51	=51	=51	=51
0C	.	4c\	.	0c	Chri-	0r	.
.	.	4B\	.	.	.	.	.
.	.	4A/	.	.	.	.	.
.	.	4G/	.	.	.	.	.
.	.	2A/	.	.	.	.	.
.	.	2G/	.	.	.	.	.
=52	=52	=52	=52	=52	=52	=52	=52
0r	.	1G	.	1d	.	0r	.
.	.	2r	.	2.c\	-ste-	.	.
.	.	2E/	.	.	.	.	.
.	.	.	.	4B\	.	.	.
=53	=53	=53	=53	=53	=53	=53	=53
0r	.	2.F/	.	4A/	.	0cc	Chri-
.	.	.	.	4G/	.	.	.
.	.	.	.	1c	.	.	.
.	.	4G/	.	.	.	.	.
.	.	1A	.	.	.	.	.
.	.	.	.	4B\	.	.	.
.	.	.	.	4A/	.	.	.
=54	=54	=54	=54	=54	=54	=54	=54
0r	.	1G	.	1B	.	1dd	.
.	.	1r	.	2.A/	.	2.cc\	-ste-
.	.	.	.	4B\	.	4b\	.
=55	=55	=55	=55	=55	=55	=55	=55
0r	.	0r	.	4c\	.	4a/	.
.	.	.	.	4d\	.	4g/	.
.	.	.	.	1e	.	1cc	.
.	.	.	.	4d\	.	4b\	.
.	.	.	.	4c\	.	4a/	.
=56	=56	=56	=56	=56	=56	=56	=56
0r	.	0r	.	2d\	.	1b	.
.	.	.	.	2e\	.	.	.
.	.	.	.	2.c\	.	2.a/	.
.	.	.	.	4d\	.	4b\	.
=57	=57	=57	=57	=57	=57	=57	=57
0r	.	0r	.	4e\	.	4cc\	.
.	.	.	.	4f\	.	4dd\	.
.	.	.	.	1g	.	1ee	.
.	.	.	.	4f\	.	4dd\	.
.	.	.	.	4e\	.	4cc\	.
=58	=58	=58	=58	=58	=58	=58	=58
1r	.	1r	.	2f\	.	2dd\	.
.	.	.	.	2c\	.	1cc	.
1G	.	1g	.	1d	.	.	.
.	.	.	.	.	.	2b\	.
=59	=59	=59	=59	=59	=59	=59	=59
1A	.	2e\	.	1c	.	1cc	.
.	.	2.f\	.	.	.	.	.
1F	.	.	.	1r	.	1r	.
.	.	4e\	.	.	.	.	.
.	.	4d\	.	.	.	.	.
.	.	4c\	.	.	.	.	.
=60	=60	=60	=60	=60	=60	=60	=60
1.G	.	2B\	.	0r	.	0r	.
.	.	4c\	.	.	.	.	.
.	.	4d\	.	.	.	.	.
.	.	2e\	.	.	.	.	.
4F\	.	[2d\	.	.	.	.	.
4E\	.	.	.	.	.	.	.
=61	=61	=61	=61	=61	=61	=61	=61
1D	.	4d\]	.	0r	.	0r	.
.	.	4c\	.	.	.	.	.
.	.	4B\	.	.	.	.	.
.	.	4A/	.	.	.	.	.
1E	.	2G/	.	.	.	.	.
.	.	[2c\	.	.	.	.	.
=62	=62	=62	=62	=62	=62	=62	=62
0D	.	2c\]	.	0r	.	0r	.
.	.	4B\	.	.	.	.	.
.	.	4A/	.	.	.	.	.
.	.	1B	.	.	.	.	.
=63	=63	=63	=63	=63	=63	=63	=63
1C	.	2c\	.	0r	.	0cc	.
.	.	4d\	.	.	.	.	.
.	.	4e\	.	.	.	.	.
1r	.	2f\	.	.	.	.	.
.	.	[2e\	.	.	.	.	.
=64	=64	=64	=64	=64	=64	=64	=64
0G	.	2e\]	.	0g	.	0b	.
.	.	4d\	.	.	.	.	.
.	.	4c\	.	.	.	.	.
.	.	1d	.	.	.	.	.
=65	=65	=65	=65	=65	=65	=65	=65
1A	.	0c	.	1e	.	2a/	.
.	.	.	.	.	.	1cc	.
1F	.	.	.	1f	.	.	.
.	.	.	.	.	.	4b\	.
.	.	.	.	.	.	4a/	.
=66	=66	=66	=66	=66	=66	=66	=66
1G	.	0B	.	1d	.	0g	.
1E	.	.	.	1e	.	.	.
=67	=67	=67	=67	=67	=67	=67	=67
1.F	.	0A	.	1.c	.	2r	.
.	.	.	.	.	.	1a	.
4E\	.	.	.	2d\	.	4g/	.
4D\	.	.	.	.	.	4f/	.
=68	=68	=68	=68	=68	=68	=68	=68
1.C	.	1.c	.	1.e	.	2e/	.
.	.	.	.	.	.	4f/	.
.	.	.	.	.	.	4g/	.
.	.	.	.	.	.	2a/	.
2D\	.	4B\	.	4d\	.	[2g/	.
.	.	4A/	.	4c\	.	.	.
=69	=69	=69	=69	=69	=69	=69	=69
1E	.	1G	.	1B	.	4g/]	.
.	.	.	.	.	.	4f/	.
.	.	.	.	.	.	4e/	.
.	.	.	.	.	.	4d/	.
1F	.	1A	.	1r	.	2c/	.
.	.	.	.	.	.	[2f/	.
=70	=70	=70	=70	=70	=70	=70	=70
0C	.	0G	.	0c	.	2f/]	.
.	.	.	.	.	.	4e/	.
.	.	.	.	.	.	4d/	.
.	.	.	.	.	.	1e	.
=71	=71	=71	=71	=71	=71	=71	=71
0c	.	0F	.	2A/	.	[0f	.
.	.	.	.	2.c\	.	.	.
.	.	.	.	4B\	.	.	.
.	.	.	.	4A/	.	.	.
.	.	.	.	4G/	.	.	.
=72	=72	=72	=72	=72	=72	=72	=72
1.d	.	0r	.	2F/	.	0f]	.
.	.	.	.	2f\	.	.	.
.	.	.	.	2d\	.	.	.
4c\	.	.	.	2f\	.	.	.
4B\	.	.	.	.	.	.	.
=73	=73	=73	=73	=73	=73	=73	=73
1A	.	0r	.	2.a\	.	0r	.
.	.	.	.	4g\	.	.	.
1B	.	.	.	4f\	.	.	.
.	.	.	.	4e\	.	.	.
.	.	.	.	[2g\	.	.	.
=74	=74	=74	=74	=74	=74	=74	=74
0A	.	0r	.	2g\]	.	0a	.
.	.	.	.	4f#i\	.	.	.
.	.	.	.	4e\	.	.	.
.	.	.	.	1f#i	.	.	.
=75	=75	=75	=75	=75	=75	=75	=75
0G	.	0r	.	2g\	.	0b	.
.	.	.	.	4f\	.	.	.
.	.	.	.	4e\	.	.	.
.	.	.	.	4d\	.	.	.
.	.	.	.	4c\	.	.	.
.	.	.	.	2d\	.	.	.
=76	=76	=76	=76	=76	=76	=76	=76
0r	.	0A	.	2.c\	.	0cc	.
.	.	.	.	4d\	.	.	.
.	.	.	.	1e	.	.	.
=77	=77	=77	=77	=77	=77	=77	=77
0G	.	0B	.	1d	.	1b	.
.	.	.	.	1e	.	1g	.
=78	=78	=78	=78	=78	=78	=78	=78
0F	.	0c	.	0f	.	0a	.
=79	=79	=79	=79	=79	=79	=79	=79
1G	.	1B	.	1d	.	1.g	.
1E	.	1G	.	1c	.	.	.
.	.	.	.	.	.	[2g/	-ley-
=80	=80	=80	=80	=80	=80	=80	=80
0D	.	0A	.	0d	.	2g/]	.
.	.	.	.	.	.	4f#i/	.
.	.	.	.	.	.	4e/	.
.	.	.	.	.	.	1f#i	.
=81	=81	=81	=81	=81	=81	=81	=81
2r	.	1G	.	2r	.	1g	.
2.G\	-ley-	.	.	2.d\	-ley-	.	.
.	.	2r	.	.	.	2r	.
4A\	.	.	.	4c\	.	.	.
4B\	.	[2G/	-ley-	4B\	.	[2dd\	.
4c\	.	.	.	4A/	.	.	.
=82	=82	=82	=82	=82	=82	=82	=82
1d	.	4G/]	.	1G	.	4dd\]	.
.	.	4A/	.	.	.	4cc\	.
.	.	4B\	.	.	.	4b\	.
.	.	4c\	.	.	.	4a/	.
2.D\	.	1d	.	2r	.	2b\	.
.	.	.	.	[2f\	.	[2a/	.
4E\	.	.	.	.	.	.	.
=83	=83	=83	=83	=83	=83	=83	=83
2F\	.	2c\	.	4f\]	.	4a/]	.
.	.	.	.	4e\	.	4g/	.
2G\	.	2B\	.	4d\	.	1g	.
.	.	.	.	4c\	.	.	.
1D	.	1A	.	1d	.	.	.
.	.	.	.	.	.	2f#i/	.
=84	=84	=84	=84	=84	=84	=84	=84
2.E\	.	[0Gl	-son	1B	.	[0gl	-son
4D\	.	.	.	.	.	.	.
2C/	.	.	.	2c\	.	.	.
2BB/	.	.	.	2d\	.	.	.
=85	=85	=85	=85	=85	=85	=85	=85
0C	.	0G_	.	0e	.	0g_	.
=86	=86	=86	=86	=86	=86	=86	=86
0GGl	-son	0G]	.	0dl	-son	0g]	.
!!LO:LB:i:g=z
=87||	=87||	=87||	=87||	=87||	=87||	=87||	=87||
*>C	*>C	*>C	*>C	*>C	*>C	*>C	*>C
*clefF4	*	*clefGv2	*	*clefGv2	*	*clefG2	*
*k[]	*	*k[]	*	*k[]	*	*k[]	*
*M2/1	*	*M2/1	*	*M2/1	*	*M2/1	*
*met(C|)	*	*met(C|)	*	*met(C|)	*	*met(C|)	*
!!section: Kyrie II
!!!OMD: Kyrie II
0r	.	0r	.	1.g	Ky-	1g	Ky-
.	.	.	.	.	.	1b	.
.	.	.	.	2f\	.	.	.
=88	=88	=88	=88	=88	=88	=88	=88
0r	.	0r	.	2e\	.	1cc	.
.	.	.	.	2c\	.	.	.
.	.	.	.	2g\	.	[1dd	.
.	.	.	.	2f\	-ri-	.	.
=89	=89	=89	=89	=89	=89	=89	=89
1.G	Ky-	1G	Ky-	1g	-e-	2dd\]	.
.	.	.	.	.	.	2dd\	-ri-
.	.	1B	.	1d	.	1dd	-e-
2F\	.	.	.	.	.	.	.
=90	=90	=90	=90	=90	=90	=90	=90
2E\	.	1c	.	1r	.	1ee	.
2C/	.	.	.	.	.	.	.
2G\	.	[1d	.	2g\	.	1dd	.
2F\	-ri-	.	.	2a\	.	.	.
=91	=91	=91	=91	=91	=91	=91	=91
1G	-e-	2d\]	.	2g\	.	1b	.
.	.	2d\	-ri-	2G/	.	.	.
1D	.	1d	-e-	2A/	.	1r	.
.	.	.	.	2B\	.	.	.
=92	=92	=92	=92	=92	=92	=92	=92
1A	.	1e	.	1c	.	0r	.
1D	.	1d	.	1A	.	.	.
=93	=93	=93	=93	=93	=93	=93	=93
1G	.	1B	.	2d\	.	0r	.
.	.	.	.	2e\	.	.	.
2F\	.	1r	.	2f\	.	.	.
2G\	.	.	.	[2e\	.	.	.
=94	=94	=94	=94	=94	=94	=94	=94
2A\	.	0r	.	4e\]	.	0r	.
.	.	.	.	4d\	.	.	.
4G\	.	.	.	1d	.	.	.
4F\	.	.	.	.	.	.	.
1E	.	.	.	.	.	.	.
.	.	.	.	2c#i\	.	.	.
=95	=95	=95	=95	=95	=95	=95	=95
1.D	.	0r	.	2.d\	.	1.dd	.
.	.	.	.	4c\	.	.	.
.	.	.	.	2B\	.	.	.
2F\	.	.	.	2A/	.	2cc\	.
=96	=96	=96	=96	=96	=96	=96	=96
1G	.	1.d	.	2B\	.	1b	.
.	.	.	.	2G/	.	.	.
2D\	.	.	.	1r	.	1a	.
2F\	.	2c\	.	.	.	.	.
=97	=97	=97	=97	=97	=97	=97	=97
1G	.	1B	.	1d	.	1g	.
1D	.	1A	.	[1d	.	1a	.
=98	=98	=98	=98	=98	=98	=98	=98
2G\	.	1G	.	2d\]	.	2b\	.
2E\	.	.	.	2e\	.	2cc\	.
2F\	.	1A	.	2c\	.	1a	.
2D\	.	.	.	2f\	.	.	.
=99	=99	=99	=99	=99	=99	=99	=99
2G\	.	2B\	.	2d\	.	2r	.
2C/	.	2c\	.	2e\	.	1g	.
1D	.	1A	.	1d	.	.	.
.	.	.	.	.	.	2f#i/	.
=100	=100	=100	=100	=100	=100	=100	=100
1d	.	0G	.	1B	.	0g	.
2B\	.	.	.	4G/	.	.	.
.	.	.	.	4A/	.	.	.
2G\	.	.	.	4B\	.	.	.
.	.	.	.	4c\	.	.	.
=101	=101	=101	=101	=101	=101	=101	=101
2B\	.	0r	.	2d\	.	0r	.
2c\	.	.	.	1e	.	.	.
1A	.	.	.	.	.	.	.
.	.	.	.	2f\	.	.	.
=102	=102	=102	=102	=102	=102	=102	=102
2G\	.	0r	.	2g\	.	1dd	.
2D\	.	.	.	2f\	.	.	.
1A	.	.	.	2e\	.	1ee	.
.	.	.	.	2c\	.	.	.
=103	=103	=103	=103	=103	=103	=103	=103
4D\	.	1d	.	1d	.	1dd	.
4E\	.	.	.	.	.	.	.
4F\	.	.	.	.	.	.	.
4G\	.	.	.	.	.	.	.
2A\	.	1e	.	1r	.	2cc\	.
[2G\	.	.	.	.	.	[2b\	.
=104	=104	=104	=104	=104	=104	=104	=104
2G\]	.	1d	.	1r	.	2b\]	.
4F\	.	.	.	.	.	4a/	.
4E\	.	.	.	.	.	4g/	.
2F\	.	2c\	.	2r	.	2a/	.
2G\	.	[2B\	.	2d\	-ley-	[2g/	.
=105	=105	=105	=105	=105	=105	=105	=105
1E	.	2B\]	.	2e\	.	2g/]	.
.	.	4A/	.	4d\	.	4f/	.
.	.	4G/	.	4c\	.	4e/	.
2.D\	.	2A/	.	2d\	.	2f/	.
.	.	2d\	.	[2f\	.	[2a/	-ley-
4E\	.	.	.	.	.	.	.
=106	=106	=106	=106	=106	=106	=106	=106
2F\	.	2c\	.	4f\]	.	4a/]	.
.	.	.	.	4e\	.	4g/	.
2G\	.	2B\	.	4d\	.	1g	.
.	.	.	.	4c\	.	.	.
1D	-ley-	1A	-ley-	[1d	-son	.	.
.	.	.	.	.	.	2f#i/	.
=107	=107	=107	=107	=107	=107	=107	=107
0GG	-son	0G	-son	0d]	.	0g	-son
=108	=108	=108	=108	=108	=108	=108	=108
0r	.	0r	.	1g	Ky-	1b	Ky-
.	.	.	.	1f	.	1a	.
=109	=109	=109	=109	=109	=109	=109	=109
0r	.	0r	.	2d\	.	1b	.
.	.	.	.	1e	.	.	.
.	.	.	.	.	.	1cc	.
.	.	.	.	2f\	.	.	.
=110	=110	=110	=110	=110	=110	=110	=110
0r	.	0r	.	2g\	.	1b	.
.	.	.	.	2e\	.	.	.
.	.	.	.	4f\	.	1a	-ri-
.	.	.	.	4e\	.	.	.
.	.	.	.	4d\	.	.	.
.	.	.	.	4c\	.	.	.
=111	=111	=111	=111	=111	=111	=111	=111
0r	.	0r	.	2B\	.	2g/	.
.	.	.	.	2c\	.	1g	-e-
.	.	.	.	1A	-ri-	.	.
.	.	.	.	.	.	2f#i/	.
=112	=112	=112	=112	=112	=112	=112	=112
1G	Ky-	1B	Ky-	1G	-e-	1g	.
1F	.	1A	.	1r	.	1r	.
=113	=113	=113	=113	=113	=113	=113	=113
2D\	.	1B	.	2r	.	0r	.
1E	.	.	.	1g	.	.	.
.	.	1c	.	.	.	.	.
2F\	.	.	.	4f\	.	.	.
.	.	.	.	4e\	.	.	.
=114	=114	=114	=114	=114	=114	=114	=114
2G\	.	2B\	.	2d\	.	0r	.
2E\	-ri-	4A/	.	1g	.	.	.
.	.	4G/	.	.	.	.	.
1D	-e-	1A	-ri-	.	.	.	.
.	.	.	.	2f#i\	.	.	.
=115	=115	=115	=115	=115	=115	=115	=115
2r	.	1G	-e-	2g\	.	1r	.
2G\	.	.	.	2d\	.	.	.
2E\	.	1r	.	1e	.	1g	-Ky-
2C/	.	.	.	.	.	.	.
=116	=116	=116	=116	=116	=116	=116	=116
1G	.	0r	.	1d	.	1b	.
2E\	.	.	.	1e	.	1cc	.
2C/	.	.	.	.	.	.	.
=117	=117	=117	=117	=117	=117	=117	=117
1G	.	1r	.	1d	.	1.dd	.
1r	.	1G	-Ky-	2B\	.	.	.
.	.	.	.	2G/	.	2dd\	-ri-
=118	=118	=118	=118	=118	=118	=118	=118
1G	.	1B	.	1d	.	1dd	-e-
2E\	.	1c	.	2.G/	.	1ee	.
2C/	.	.	.	.	.	.	.
.	.	.	.	4A/	.	.	.
=119	=119	=119	=119	=119	=119	=119	=119
2G\	.	1.d	.	2B\	.	2.dd\	.
2F\	.	.	.	2A/	.	.	.
.	.	.	.	.	.	4cc\	.
2G\	.	.	.	2G/	.	2b\	.
2F\	.	2d\	-ri-	2A/	.	[2a/	.
=120	=120	=120	=120	=120	=120	=120	=120
1D	.	1d	-e-	1.A	.	2a/]	.
.	.	.	.	.	.	1dd	.
1A	.	1e	.	.	.	.	.
.	.	.	.	[2a\	.	2cc#i\	.
=121	=121	=121	=121	=121	=121	=121	=121
0D	.	0d	.	4a\]	.	1dd	.
.	.	.	.	4g\	.	.	.
.	.	.	.	4f#i\	.	.	.
.	.	.	.	4e\	.	.	.
.	.	.	.	1f#i	.	1r	.
=122	=122	=122	=122	=122	=122	=122	=122
1G	.	1B	.	1.g	.	1dd	.
2C/	.	1r	.	.	.	2ee\	.
2D\	.	.	.	2f\	.	[2dd\	.
=123	=123	=123	=123	=123	=123	=123	=123
1G	.	1d	.	1.g	.	2dd\]	.
.	.	.	.	.	.	2b\	.
2C/	.	2e\	.	.	.	2cc\	.
[2G\	.	2d\	.	2d\	.	2b\	.
=124	=124	=124	=124	=124	=124	=124	=124
2G\]	.	1B	.	1.g	.	2g/	.
2G\	.	.	.	.	.	2dd\	.
2C/	.	2c\	.	.	.	2ee\	.
2D\	.	2B\	.	2f\	.	[2dd\	.
=125	=125	=125	=125	=125	=125	=125	=125
1G	.	2G/	.	1.g	.	2dd\]	.
.	.	2d\	.	.	.	2b\	.
2C/	.	2e\	.	.	.	2cc\	.
[2G\	.	2d\	.	2d\	.	2b\	.
=126	=126	=126	=126	=126	=126	=126	=126
2G\]	.	1B	.	1.g	.	2g/	.
2G\	.	.	.	.	.	2dd\	.
2C/	.	2c\	.	.	.	2ee\	.
2D\	.	2B\	.	2f\	.	[2dd\	.
=127	=127	=127	=127	=127	=127	=127	=127
1.G	.	2G/	.	0g	.	4dd\]	.
.	.	.	.	.	.	4cc\	.
.	.	1d	.	.	.	4b\	.
.	.	.	.	.	.	4a/	.
.	.	.	.	.	.	2b\	.
2E\	.	2e\	.	.	.	2g/	.
=128	=128	=128	=128	=128	=128	=128	=128
2A\	.	2c\	.	1r	.	2cc\	.
2G\	.	2.d\	.	.	.	2b\	.
2D\	.	.	.	2r	.	2a/	.
.	.	4c\	.	.	.	.	.
[2G\	.	4B\	.	[2d\	.	[2b\	.
.	.	4A/	.	.	.	.	.
=129	=129	=129	=129	=129	=129	=129	=129
4G\]	.	2G/	.	2d\]	.	4b\]	.
4A\	.	.	.	.	.	4a/	.
2G\	.	2B\	.	2e\	.	1g	.
1D	.	1A	.	1d	.	.	.
.	.	.	.	.	.	2f#i/	.
=130	=130	=130	=130	=130	=130	=130	=130
2r	.	0G	.	2B\	.	1g	.
2.d\	.	.	.	2G/	.	.	.
.	.	.	.	2.B\	.	1r	.
4c\	.	.	.	.	.	.	.
4B\	.	.	.	.	.	.	.
4A\	.	.	.	4c\	.	.	.
=131	=131	=131	=131	=131	=131	=131	=131
2G\	.	0r	.	2.d\	.	1.dd	.
4F\	.	.	.	.	.	.	.
4E\	.	.	.	4e\	.	.	.
2D\	.	.	.	4f\	.	.	.
.	.	.	.	4g\	.	.	.
2F\	.	.	.	2a\	.	2cc\	.
=132	=132	=132	=132	=132	=132	=132	=132
1G	.	1.d	.	1g	.	1b	.
2D\	.	.	.	2f\	.	1a	.
2F\	.	2c\	.	2a\	.	.	.
=133	=133	=133	=133	=133	=133	=133	=133
1G	.	1B	.	1g	.	1.dd	.
2D\	.	1A	.	2f\	.	.	.
2F\	.	.	.	2a\	.	2cc\	.
=134	=134	=134	=134	=134	=134	=134	=134
2G\	.	1.d	.	2g\	.	2b\	.
2F\	.	.	.	2a\	.	2a/	.
2D\	.	.	.	2f\	.	2b\	.
2F\	.	2c\	.	2a\	.	[2a/	-ley-
=135	=135	=135	=135	=135	=135	=135	=135
2G\	.	2B\	.	2d\	-ley-	4a/]	.
.	.	.	.	.	.	4g/	.
2C/	.	2c\	.	2e\	.	1g	.
1D	-ley-	1A	-ley-	1d	.	.	.
.	.	.	.	.	.	2f#i/	.
=136	=136	=136	=136	=136	=136	=136	=136
1.E	.	[0Gl	-son	2B\	.	[0gl	-son
.	.	.	.	2.c\	.	.	.
.	.	.	.	4d\	.	.	.
[2C/	.	.	.	[2e\	.	.	.
=137	=137	=137	=137	=137	=137	=137	=137
4C/]	.	0G_	.	4e\]	.	0g_	.
4D\	.	.	.	4d\	.	.	.
2.E\	.	.	.	2c\	.	.	.
.	.	.	.	2B\	.	.	.
4D\	.	.	.	.	.	.	.
2C/	.	.	.	2c\	.	.	.
=138	=138	=138	=138	=138	=138	=138	=138
2BB/	.	0G_	.	2d\	.	0g_	.
2.C/	.	.	.	1e	.	.	.
4D\	.	.	.	.	.	.	.
4E\	.	.	.	4d\	.	.	.
4F\	.	.	.	4c\	.	.	.
=139	=139	=139	=139	=139	=139	=139	=139
0G	.	0G_	.	2.B\	.	0g_	.
.	.	.	.	4A/	.	.	.
.	.	.	.	2B\	.	.	.
.	.	.	.	2c\	.	.	.
=140	=140	=140	=140	=140	=140	=140	=140
0GGl	-son	0G]	.	0dl	-son	0g]	.
==	==	==	==	==	==	==	==
*-	*-	*-	*-	*-	*-	*-	*-
!!!RDF**kern: l=long note in original notation
!!!RDF**kern: i=editorial accidental
!!!RDF**kern: V=start of tuplet marker
!!!RDF**kern: Z=end of tuplet marker
!!!ENC:	Jesse Rodin (8/15/2012)
!!!END:	2012/08/15/
!!!EED:	Jesse Rodin
!!!EEV:	2012/08/17/
!!attribution-level@Jos: 4 (questionable)
!!!ONB:	Translated from MusicXML and edited on 2012/08/17/ by Craig Sapp
!!muse2ps: C^@{COA}?\n@{SCT}^i2I150v85,85,85,130Q16
